X:242
T: Deirdre's Lamentation for the Sons of Usnoth
N: O'Farrell's Pocket Companion v.3 (Sky ed. p.116)
N: "Irish"
M: 3/4
L: 1/8
R: waltz
Q: 120
K: G
GA | B3 AGE| D>E G2 GA/B/| c3 cBG| AGEDEG | A4 :|
Bc | d>e gedB| AG/E/ D2 DE| G>AGEDE| G>ABG A2| G4 ||
